src/assets/icons/rocket.svg

<svg width="24" height="24" viewBox="0 0 24 24" fill="none" xmlns="http://www.w3.org/2000/svg">
<path d="M21.7025 5.75366C21.9276 4.52373 21.9878 3.47168 21.9984 2.79954C22.0032 2.49261 22.0057 2.33915 21.9085 2.20459C21.8805 2.16568 21.8347 2.11987 21.7957 2.09178C21.6612 1.99466 21.5082 1.99705 21.2023 2.00184C19.4008 2.03001 14.8646 2.4151 11.4931 5.37816C11.3787 5.4787 11.3215 5.52897 11.261 5.55845C11.2401 5.56865 11.2212 5.57633 11.1991 5.58365C11.1352 5.60479 11.0641 5.60849 10.922 5.61589L5.85466 5.87963C5.38102 5.90428 5.14419 5.91661 4.94472 5.95699C3.81006 6.1867 2.94076 7.10242 2.77034 8.24749C2.74038 8.44879 2.74038 8.68593 2.74038 9.16022V9.16022C2.74038 9.63852 2.74038 9.87768 2.7707 10.0802C2.94329 11.2326 3.82346 12.1512 4.96747 12.3727C5.16851 12.4117 5.40745 12.4219 5.88532 12.4423L7.09415 12.4939C7.21956 12.4992 7.28226 12.5019 7.34079 12.5191C7.38198 12.5311 7.42144 12.5485 7.4582 12.5707C7.51043 12.6021 7.55481 12.6465 7.64357 12.7353L11.265 16.3567C11.3537 16.4455 11.3981 16.4898 11.4296 16.5421C11.4518 16.5788 11.4691 16.6183 11.4812 16.6595C11.4984 16.718 11.5011 16.7807 11.5064 16.9061L11.558 18.1149C11.5784 18.5928 11.5886 18.8318 11.6275 19.0328C11.8491 20.1768 12.7677 21.057 13.9201 21.2296C14.1226 21.2599 14.3617 21.2599 14.8401 21.2599V21.2599C15.3143 21.2599 15.5515 21.2599 15.7528 21.2299C16.8979 21.0595 17.8136 20.1902 18.0433 19.0556C18.0837 18.8561 18.096 18.6193 18.1206 18.1456L18.3844 13.0783C18.3918 12.9361 18.3955 12.865 18.4166 12.8011C18.424 12.779 18.4316 12.7601 18.4418 12.7392C18.4713 12.6787 18.5214 12.6218 18.6215 12.5079C19.1008 11.9626 19.5126 11.3869 19.8664 10.7972M7.02354 20.5572C5.7106 21.8701 3.74304 22.0203 2.71999 21.9981C2.46546 21.9925 2.3382 21.9898 2.21104 21.8965C2.17641 21.8711 2.12886 21.8236 2.10346 21.789C2.01023 21.6618 2.00747 21.5345 2.00194 21.28C1.97971 20.257 2.12985 18.2894 3.44279 16.9765C3.50574 16.9135 3.5716 16.8518 3.63989 16.7916C3.87113 16.5877 3.29303 17.0975 3.43298 17.0018C4.16028 16.5047 5.98103 16.5618 6.67575 17.1035C6.80944 17.2078 6.7951 17.1934 6.80083 17.1992V17.1992C6.80657 17.2049 6.79223 17.1906 6.89647 17.3242C7.43818 18.019 7.49528 19.8397 6.99817 20.567C6.90251 20.707 7.41231 20.1289 7.20839 20.3601C7.14817 20.4284 7.08648 20.4943 7.02354 20.5572ZM12.0985 9.69348V9.69348C11.4889 10.303 11.4889 11.2913 12.0985 11.9009V11.9009C12.7081 12.5105 13.6964 12.5105 14.3059 11.9009V11.9009C14.9155 11.2913 14.9155 10.303 14.3059 9.69348V9.69348C13.6964 9.08392 12.7081 9.08392 12.0985 9.69348Z" stroke="#1D2129" stroke-width="1.5" stroke-linecap="round" stroke-linejoin="round"/>
</svg>

<svg width="24" height="24" fill="none" xmlns="http://www.w3.org/2000/svg"><path d="M21.703 5.754a18 18 0 0 0 .295-2.954c.005-.307.008-.46-.09-.595a.6.6 0 0 0-.112-.113c-.135-.097-.288-.095-.594-.09-1.801.028-6.337.413-9.709 3.376-.114.1-.171.151-.232.18a1 1 0 0 1-.062.026c-.064.02-.135.024-.277.032l-5.067.264c-.474.024-.71.037-.91.077a2.75 2.75 0 0 0-2.175 2.29c-.03.202-.03.439-.03.913v0c0 .479 0 .718.03.92a2.75 2.75 0 0 0 2.197 2.293c.202.039.44.049.918.07l1.21.05c.125.006.187.009.246.026q.062.018.117.052c.052.031.097.075.186.164l3.621 3.622c.089.088.133.133.165.185q.034.055.051.117c.017.059.02.122.025.247l.052 1.209c.02.478.03.717.07.918a2.75 2.75 0 0 0 2.292 2.197c.203.03.442.03.92.03v0c.474 0 .712 0 .913-.03a2.75 2.75 0 0 0 2.29-2.174c.04-.2.053-.437.078-.91l.263-5.068c.008-.142.011-.213.033-.277a1 1 0 0 1 .025-.062c.03-.06.08-.117.18-.231.479-.545.89-1.121 1.244-1.71m-12.842 9.76C5.71 21.87 3.743 22.02 2.72 21.997c-.255-.006-.382-.008-.509-.102a.6.6 0 0 1-.108-.107c-.093-.127-.096-.255-.101-.509-.022-1.023.128-2.99 1.44-4.303q.096-.096.198-.185c.231-.204-.347.305-.207.21.727-.497 2.548-.44 3.243.102.133.104.12.09.125.095v0c.006.006-.009-.008.095.125.542.695.6 2.516.102 3.243-.095.14.414-.438.21-.207q-.09.102-.184.197m5.075-10.865a1.56 1.56 0 0 0 0 2.208v0c.61.61 1.597.61 2.207 0v0a1.56 1.56 0 0 0 0-2.208v0a1.56 1.56 0 0 0-2.207 0" stroke="#1D2129" stroke-width="1.5" stroke-linecap="round" stroke-linejoin="round"/></svg>
